X:1
T:When the cold winter nights were frozen
S:James Thomsons MS for recorder and fiddle
S:Edinburgh 1702 NLS MS 2833
M:6/4
L:1/4
K:C
c.deg2e|gac'"//"e2c|DEGA2G|"//"A2G"//"A2c|
C>DE G2E|GAcE>DC|FG/F/E/D/ E F/E/D/C/|DEGA2G||
c2cc.de|GAcE2C|Dddd2c/d/|ef/e/d/c/A2G|
c2ccde|GAc"//"E2C|FG/F/E/D/ E F/E/D/C/|DEG"//"A2G||
